outputs/icons/hardware/tv_sharp.svg

<svg xmlns="http://www.w3.org/2000/svg" width="1200" height="1200" fill="none"><g clip-path="url(#a)"><path fill="#000" d="M1150 150H50v800h350v100h400V950h349.5zm-100 700H150V250h900z"/></g><defs><clipPath id="a"><path fill="#fff" d="M0 0h1200v1200H0z"/></clipPath></defs></svg>

<svg width="1200" height="1200" viewBox="0 0 1200 1200" fill="none" xmlns="http://www.w3.org/2000/svg"><g clip-path="url(#clip0_133_23)"><path d="M1150 150H50V950H400V1050H800V950H1149.5L1150 150ZM1050 850H150V250H1050V850Z" fill="#1D1E23"/></g><defs><clipPath id="clip0_133_23"><path width="24" fill="white" d="M0 0H1200V1200H0V0z"/></clipPath></defs></svg>
